src/assets/close-icon.svg

<svg fill="#9b9999" xmlns="http://www.w3.org/2000/svg"  viewBox="0 0 24 24" width="24px" height="24px"><path d="M 4.9902344 3.9902344 A 1.0001 1.0001 0 0 0 4.2929688 5.7070312 L 10.585938 12 L 4.2929688 18.292969 A 1.0001 1.0001 0 1 0 5.7070312 19.707031 L 12 13.414062 L 18.292969 19.707031 A 1.0001 1.0001 0 1 0 19.707031 18.292969 L 13.414062 12 L 19.707031 5.7070312 A 1.0001 1.0001 0 0 0 18.980469 3.9902344 A 1.0001 1.0001 0 0 0 18.292969 4.2929688 L 12 10.585938 L 5.7070312 4.2929688 A 1.0001 1.0001 0 0 0 4.9902344 3.9902344 z"/></svg>

<svg fill="#9b9999" xmlns="http://www.w3.org/2000/svg" width="24" height="24">
    <path d="M4.99 3.99a1 1 0 0 0-.697 1.717L10.586 12l-6.293 6.293a1 1 0 1 0 1.414 1.414L12 13.414l6.293 6.293a1 1 0 1 0 1.414-1.414L13.414 12l6.293-6.293a1 1 0 0 0-.727-1.717 1 1 0 0 0-.687.303L12 10.586 5.707 4.293a1 1 0 0 0-.717-.303z"/>
</svg>
